X: 30766
T: Orphan, The
R: jig
M: 6/8
K: Eminor
~E3 EDB|GFG AGA|B2 B ABA|GE/F/G EDB|
~E3 EDG|GFG AGA|B z B ~A3|GED e z2|
e3edB|g3 a3|bag age|ede gde|
z ee edB|g3 a3|b2b age|ged e z2|
e3 dBA|GAB dB/c/d|~e3 dBA|BE/F/G EDB|
~E3 EDG|GFG AGA|~B3 ABA|ged e z2|
g2e zge|a2b zba|g2e ega|bbb bbb|
age ged|^deg =dBA|~B3 ABA|GED e z2|

